X:1
T:Title
%%score { ( 1 3 ) | ( 2 4 ) }
L:1/8
Q:1/4=100
M:4/4
K:F
V:1 treble nm="Grand Piano"
V:3 treble 
V:2 bass 
V:4 bass 
V:1
 A2 A>A A2 G>F | [FB]2 [Fd]2 cA z2 | A2 G>F [EG]2 z2 | G2 F>E F2 z2 | A2 A>A A2 G>F | %5
w: J.~Howard~Entwisle * * * * *|||||
 [FB]2 [Fd]2 [Fc][FA] z2 | [FA]2 G>F G2 z A, | F6 z2 | z4 c4 | z4 [Fd]4 | %10
w: |||||
 c2 [Ac]>[Ac] [GB]2 [FA]2 |[M:9/8] z3 z [Ec]2- [Ec]3 |[M:4/4] A2 A>A A2 G>F | %13
w: |||
 [FB]2 [Fd]2 [Fc][FA] z2 | [FA]2 G>F G2 z A, |[M:8/4] F8 z8 |] %16
w: |||
V:2
 [F,CF]2 [F,CF]>[F,CF] [F,CF]2 [F,B,C]>[F,A,C] | [D,B,]2 [B,,B,]2 [F,A,F][F,CF] z2 | %2
 [F,CF]2 [F,B,C]>[F,A,C] [C,C]2 z2 | [C,B,C]2 [C,A,C]>[C,G,C] [F,A,C]2 z2 | %4
 [F,CF]2 [F,CF]>[F,CF] [F,C_E]2 [F,B,E]>[F,A,E] | [D,B,]2 [B,,B,]2 [F,A,][F,C] z2 | %6
 [C,C]2 [C,B,C]>[C,A,C] [C,B,C]2 .[C,G,C]2 | [F,A,C]6 z2 | z4 F2 z2 | z4 B,4 | %10
 [F,A,F]2 [F,C]>[F,C] [F,C]2 [F,C]2 |[M:9/8] z3 z G,2 z3 | %12
[M:4/4] [F,CF]2 [F,CF]>[F,CF] [F,C_E]2 [F,B,E]>[F,A,E] | [D,B,]2 [B,,B,]2 [F,A,][F,C] z2 | %14
 [C,C]2 [C,B,C]>[C,A,C] [C,B,C]2 .[C,G,C]2 |[M:8/4] [F,A,C]8 z8 |] %16
V:3
 x8 | x8 | x8 | x8 | x8 | x8 | z4 z2 E2 | x8 | A2 A>A z2 _E2 | [DB]2 [DB]>[DB] z2 D,2 | x8 | %11
[M:9/8] [EG]2 [D=B]- [DB]<.[FB] z B,3 |[M:4/4] x8 | x8 | z4 z2 E2 |[M:8/4] x16 |] %16
V:4
 x8 | x8 | x8 | x8 | x8 | x8 | x8 | x8 | [F,CF]2 [F,CF]>[F,CF] [F,A,]4 | %9
 [B,,F,]2 [B,,F,]>[B,,F,] B,,2 z2 | x8 |[M:9/8] [G,C]2 [G,,G,]- [G,,G,]/[G,,G,]/ C,2- C,3 | %12
[M:4/4] x8 | x8 | x8 |[M:8/4] x16 |] %16

